dist/img/svg/color.svg

<svg width="24" height="24" viewBox="0 0 24 24" fill="none" xmlns="http://www.w3.org/2000/svg">
<path d="M10 4.5V18C10 19.08 9.55999 20.07 8.85999 20.79L8.82001 20.83C8.73001 20.92 8.63001 21.01 8.54001 21.08C8.24001 21.34 7.89999 21.54 7.54999 21.68C7.43999 21.73 7.33 21.77 7.22 21.81C6.83 21.94 6.41 22 6 22C5.73 22 5.46001 21.97 5.20001 21.92C5.07001 21.89 4.94 21.86 4.81 21.82C4.65 21.77 4.50001 21.72 4.35001 21.65C4.35001 21.64 4.35 21.64 4.34 21.65C4.06 21.51 3.79001 21.35 3.54001 21.16L3.53 21.15C3.4 21.05 3.28001 20.95 3.17001 20.83C3.06001 20.71 2.95 20.59 2.84 20.46C2.65 20.21 2.49001 19.94 2.35001 19.66C2.36001 19.65 2.36001 19.65 2.35001 19.65C2.35001 19.65 2.35 19.64 2.34 19.63C2.28 19.49 2.22999 19.34 2.17999 19.19C2.13999 19.06 2.10999 18.93 2.07999 18.8C2.02999 18.54 2 18.27 2 18V4.5C2 3 3 2 4.5 2H7.5C9 2 10 3 10 4.5Z" stroke="currentColor" stroke-width="1.5" stroke-linecap="round" stroke-linejoin="round"/>
<path d="M22 16.5V19.5C22 21 21 22 19.5 22H6C6.41 22 6.83 21.94 7.22 21.81C7.33 21.77 7.43999 21.73 7.54999 21.68C7.89999 21.54 8.24001 21.34 8.54001 21.08C8.63001 21.01 8.73001 20.92 8.82001 20.83L8.85999 20.79L15.66 14H19.5C21 14 22 15 22 16.5Z" stroke="currentColor" stroke-width="1.5" stroke-linecap="round" stroke-linejoin="round"/>
<path d="M4.80969 21.8199C4.20969 21.6399 3.63971 21.3099 3.16971 20.8299C2.68971 20.3599 2.35969 19.7899 2.17969 19.1899C2.56969 20.4399 3.55969 21.4299 4.80969 21.8199Z" stroke="currentColor" stroke-width="1.5" stroke-linecap="round" stroke-linejoin="round"/>
<path d="M18.3694 11.2899L15.6594 14L8.85938 20.7899C9.55937 20.0699 9.99939 19.08 9.99939 18V8.33995L12.7094 5.62996C13.7694 4.56996 15.1894 4.56996 16.2494 5.62996L18.3694 7.74996C19.4294 8.80996 19.4294 10.2299 18.3694 11.2899Z" stroke="currentColor" stroke-width="1.5" stroke-linecap="round" stroke-linejoin="round"/>
<path d="M6 19C6.55228 19 7 18.5523 7 18C7 17.4477 6.55228 17 6 17C5.44772 17 5 17.4477 5 18C5 18.5523 5.44772 19 6 19Z" stroke="currentColor" stroke-width="1.5" stroke-linecap="round" stroke-linejoin="round"/>
</svg>

<svg width="24" height="24" viewBox="0 0 24 24" fill="none" xmlns="http://www.w3.org/2000/svg"><path d="M10 4.5V18c0 1.08-.44 2.07-1.14 2.79l-.04.04c-.09.09-.19.18-.28.25-.3.26-.64.46-.99.6-.11.05-.22.09-.33.13-.39.13-.81.19-1.22.19-.27 0-.54-.03-.8-.08-.13-.03-.26-.06-.39-.1-.16-.05-.31-.1-.46-.17 0-.01 0-.01-.01 0-.28-.14-.55-.3-.8-.49l-.01-.01c-.13-.1-.25-.2-.36-.32-.11-.12-.22-.24-.33-.37-.19-.25-.35-.52-.49-.8.01-.01.01-.01 0-.01 0 0 0-.01-.01-.02-.06-.14-.11-.29-.16-.44a5.58 5.58 0 01-.1-.39c-.05-.26-.08-.53-.08-.8V4.5C2 3 3 2 4.5 2h3C9 2 10 3 10 4.5z" stroke="currentColor" stroke-width="1.5" stroke-linecap="round" stroke-linejoin="round"/><path d="M22 16.5v3c0 1.5-1 2.5-2.5 2.5H6c.41 0 .83-.06 1.22-.19.11-.04.22-.08.33-.13.35-.14.69-.34.99-.6.09-.07.19-.16.28-.25l.04-.04 6.8-6.79h3.84c1.5 0 2.5 1 2.5 2.5zM4.81 21.82c-.6-.18-1.17-.51-1.64-.99-.48-.47-.81-1.04-.99-1.64a4.02 4.02 0 002.63 2.63z" stroke="currentColor" stroke-width="1.5" stroke-linecap="round" stroke-linejoin="round"/><path d="M18.37 11.29L15.66 14l-6.8 6.79C9.56 20.07 10 19.08 10 18V8.34l2.71-2.71c1.06-1.06 2.48-1.06 3.54 0l2.12 2.12c1.06 1.06 1.06 2.48 0 3.54zM6 19a1 1 0 100-2 1 1 0 000 2z" stroke="currentColor" stroke-width="1.5" stroke-linecap="round" stroke-linejoin="round"/></svg>
